src/assets/css.svg

<svg xmlns="http://www.w3.org/2000/svg" viewBox="0 0 128 128"><path fill="#1572B6" d="M19.67 26l8.069 90.493 36.206 10.05 36.307-10.063 8.078-90.48h-88.66zm69.21 50.488l-2.35 21.892.009 1.875-22.539 6.295v.001l-.018.015-22.719-6.225-1.537-17.341h11.141l.79 8.766 12.347 3.295-.004.015v-.032l12.394-3.495 1.308-14.549h-25.907000000000004l-.222-2.355-.506-5.647-.265-2.998h27.886000000000003l1.014-11h-42.473l-.223-2.589-.506-6.03-.265-3.381h55.597l-.267 3.334-2.685 30.154"/><path fill="#1572B6" d="M89 14.374l-7.149-8.374h7.149v-5h-16v4.363l8.39 7.637h-8.39v5h16zM70 14.374l-6.807-8.374h6.807v-5h-15v4.363l7.733 7.637h-7.733v5h15zM52 13h-8v-7h8v-5h-14v17h14z"/></svg>

<svg xmlns="http://www.w3.org/2000/svg" viewBox="0 0 128 128"><path fill="#1572B6" d="M19.67 26l8.069 90.493 36.206 10.05 36.307-10.063L108.33 26H19.67zm69.21 50.488L86.53 98.38l.009 1.875L64 106.55v.001l-.018.015-22.719-6.225L39.726 83h11.141l.79 8.766 12.347 3.295-.004.015v-.032l12.394-3.495L77.702 77H51.795l-.222-2.355-.506-5.647L50.802 66h27.886l1.014-11H37.229l-.223-2.589-.506-6.03L36.235 43h55.597l-.267 3.334-2.685 30.154M89 14.374L81.851 6H89V1H73v4.363L81.39 13H73v5h16zm-19 0L63.193 6H70V1H55v4.363L62.733 13H55v5h15zM52 13h-8V6h8V1H38v17h14z"/></svg>
